icons/Gift.svg

<svg width="24" height="24" viewBox="0 0 24 24" fill="none" xmlns="http://www.w3.org/2000/svg">
<path fill-rule="evenodd" clip-rule="evenodd" d="M12.7981,4.79928c0.8709,-0.80515 2.0106,-1.29928 3.059,-1.29928c1.5481,0 2.8929,1.18332 2.8929,2.75c0,0.45565 -0.1138,0.87888 -0.3132,1.25h0.8132c0.9665,0 1.75,0.7835 1.75,1.75v1c0,0.9665 -0.7835,1.75 -1.75,1.75v5.5c0,1.5188 -1.2312,2.75 -2.75,2.75h-1.75h-0.75h-0.75h-2.5h-0.75h-0.75h-1.75c-1.51878,0 -2.75,-1.2312 -2.75,-2.75v-5.5c-0.9665,0 -1.75,-0.7835 -1.75,-1.75v-1c0,-0.9665 0.7835,-1.75 1.75,-1.75h0.81317c-0.19942,-0.37112 -0.31317,-0.79435 -0.31317,-1.25c0,-1.56668 1.34475,-2.75 2.89286,-2.75c1.04848,0 2.18814,0.49413 3.05904,1.29928c0.2963,0.27396 0.5679,0.58985 0.7981,0.94313c0.2302,-0.35328 0.5018,-0.66917 0.7981,-0.94313zM9.25,18.75v-6.75h-3v5.5c0,0.6904 0.55964,1.25 1.25,1.25zM9.25,10.5v-1.5h-1.10714h-3.39286c-0.13807,0 -0.25,0.11193 -0.25,0.25v1c0,0.1381 0.11193,0.25 0.25,0.25h0.75zM9.25,7.5h0.75h0.75h0.4072c-0.16,-0.63259 -0.5155,-1.17581 -0.9736,-1.59928c-0.64342,-0.59485 -1.43237,-0.90072 -2.04074,-0.90072c-0.81883,0 -1.39286,0.60754 -1.39286,1.25c0,0.64246 0.57403,1.25 1.39286,1.25zM12.8428,7.5h0.4072h0.75h0.75h1.1071c0.8189,0 1.3929,-0.60754 1.3929,-1.25c0,-0.64246 -0.574,-1.25 -1.3929,-1.25c-0.6083,0 -1.3973,0.30587 -2.0407,0.90072c-0.4581,0.42347 -0.8136,0.96669 -0.9736,1.59928zM14.75,9v1.5h3.75h0.75c0.1381,0 0.25,-0.1119 0.25,-0.25v-1c0,-0.13807 -0.1119,-0.25 -0.25,-0.25h-3.3929zM14.75,12v6.75h1.75c0.6904,0 1.25,-0.5596 1.25,-1.25v-5.5zM10.75,18.75h2.5v-6.75v-0.75v-0.75v-1.5h-0.5h-0.75h-0.75h-0.5v1.5v0.75v0.75z" fill="#002B51"/>
</svg>

<svg width="24" height="24" viewBox="0 0 24 24" fill="none" xmlns="http://www.w3.org/2000/svg">
<path fill-rule="evenodd" clip-rule="evenodd" d="M12.7981 4.79928C13.669 3.99413 14.8087 3.5 15.8571 3.5C17.4052 3.5 18.75 4.68332 18.75 6.25C18.75 6.70565 18.6362 7.12888 18.4368 7.5H19.25C20.2165 7.5 21 8.2835 21 9.25V10.25C21 11.2165 20.2165 12 19.25 12V17.5C19.25 19.0188 18.0188 20.25 16.5 20.25H14.75H14H13.25H10.75H10H9.25H7.5C5.98122 20.25 4.75 19.0188 4.75 17.5L4.75 12C3.7835 12 3 11.2165 3 10.25V9.25C3 8.2835 3.7835 7.5 4.75 7.5H5.56317C5.36375 7.12888 5.25 6.70565 5.25 6.25C5.25 4.68332 6.59475 3.5 8.14286 3.5C9.19134 3.5 10.331 3.99413 11.2019 4.79928C11.4982 5.07324 11.7698 5.38913 12 5.74241C12.2302 5.38913 12.5018 5.07324 12.7981 4.79928ZM9.25 18.75V12H6.25V17.5C6.25 18.1904 6.80964 18.75 7.5 18.75H9.25ZM9.25 10.5V9H8.14286H4.75C4.61193 9 4.5 9.11193 4.5 9.25V10.25C4.5 10.3881 4.61193 10.5 4.75 10.5H5.5H9.25ZM9.25 7.5H10H10.75H11.1572C10.9972 6.86741 10.6417 6.32419 10.1836 5.90072C9.54018 5.30587 8.75123 5 8.14286 5C7.32403 5 6.75 5.60754 6.75 6.25C6.75 6.89246 7.32403 7.5 8.14286 7.5H9.25ZM12.8428 7.5H13.25H14H14.75H15.8571C16.676 7.5 17.25 6.89246 17.25 6.25C17.25 5.60754 16.676 5 15.8571 5C15.2488 5 14.4598 5.30587 13.8164 5.90072C13.3583 6.32419 13.0028 6.86741 12.8428 7.5ZM14.75 9V10.5H18.5H19.25C19.3881 10.5 19.5 10.3881 19.5 10.25V9.25C19.5 9.11193 19.3881 9 19.25 9H15.8571H14.75ZM14.75 12V18.75H16.5C17.1904 18.75 17.75 18.1904 17.75 17.5V12H14.75ZM10.75 18.75H13.25V12V11.25V10.5V9H12.75H12H11.25H10.75V10.5V11.25V12V18.75Z" fill="#002B51"/>
</svg>
